X: 870
T: Gönlümü Vîrân Eden...
C: Zekâî Dede
O: Turkey
F: http://compmusic.upf.edu/node/140
N: hicazasiran--beste--cenber--gonlumu_viran--zekai_dede
N: makam= hicazasiran
N: form= beste
N: usul= cenber = 24/4
M: 24/4
L: 1/16
K: C _7/8B ^f ^c 
Q: 1/4=66
%%MIDI tuningsystem comma53
c2 d8 {e}dc =B2 c2  | d8 z2 f4 g2  | \
w:  Ah  *  *  gön *  *  lü  |  mü  vî  | 
g2 e4 =f2 d2 g2 f2 e2  | d2 c2 BA G2 z2 dc B2 cd  | 
w:  *  râ   |  *  *  *  *  *  rân  *  *  e  | 
c2 d6 z4 =f3g  | e3=f d3e cd cB BA BA  | \
w:  den  *  den   |  a  | 
A8 z2 AG F2 G2  | 
w:  *  dâ *  *  yı   | 
A6 c2 cB {c}BA B2 {e}d2  | c2 B2 A2 B2 dc BA G4  | \
w:  dil *  şâd   |   | 
d4 d2 g2 =f2 e4 d2  | 
w:  ey le *  *  me   | 
c2 d2 e=f ed d8  | d4 d4 d2 c4 d2  | \
w:   |  naz lım  a man  a  | 
c2 B4 A2 z2 AG F2 G2  | A2 G2 A2 =c2 =B2 A4 GF  | 
w:  man   *  *  Be *  li   |  be *  *  li  be *  li   | 
AG FE D4 G3F G2 =B2  | A2 G4 {A}GF F3E G2 FE  | \
w:  mî *  *  *  rim  öm *  rüm_ a  |  man  *  *  e *  fen *  dim_ a  | 
D2 E6 z4 d3e  | 
w:  man  *  vay   | 
=f3e ed dc d6 z2  | c2 d8 {e}dc =B2 c2  | \
w:  hey  *  câ *  *  *  nım    |  Ah  *  *  gön *  *  lü  | 
d8 z2 f4 g2  | g2 e4 =f2 d2 g2 f2 e2  | 
w:  mü  vî  |  *  râ   | 
d2 c2 BA G2 z2 dc B2 cd  | c2 d6 z4 =f3g  | \
w:  *  *  *  *  *  rân  *  *  e  |  den  *  den   | 
e3=f d3e cd cB BA BA  | 
w:  a  | 
A8 z2 AG F2 G2  | A6 c2 cB {c}BA B2 {e}d2  | \
w:  *  dâ *  *  yı   |  dil *  şâd   | 
c2 B2 A2 B2 dc BA G4  | 
w:   | 
d4 d2 g2 =f2 e4 d2  | c2 d2 e=f ed d8  | \
w:  ey le *  *  me   |   | 
d4 d4 d2 c4 d2  | c2 B4 A2 z2 AG F2 G2  | 
w:  naz lım  a man  a  |  man   *  *  Be *  li   | 
A2 G2 A2 =c2 =B2 A4 GF  | AG FE D4 G3F G2 =B2  | \
w:  be *  *  li  be *  li   |  mî *  *  *  rim  öm *  rüm_ a  | 
A2 G4 {A}GF F3E G2 FE  | 
w:  man  *  *  e *  fen *  dim_ a  | 
D2 E6 z4 =c3d  | e3d d=c cB c6 z2  | \
w:  man  *  vay   |  hey  *  câ *  *  *  nım    | 
=B2 =c8 G4 c2  | =c6 z2 d2 e4 =f2  | 
w:  Ah  *  pen çe   |  i  şâ  | 
=f2 ef e2 de d2 =cd c2 =Bc  | =B2 =cB A^G AB A2 B4 =G2  | 
w:  *  hi   |  *  *  *  *  *  *  *  *  hin_  i   | 
A8 z4 g4  | f2 g6 f2 g2 a2 =b2  | a2 gf e4 z2 e4 a2  | \
w:  gam  gam  |  zen   |  *  *  *  *  bî  a  | 
a2 g2 g2 a2 g2 f4 g2  | 
w:  man *  *  *  dır   | 
f2 e4 d2 d2 _7/8ed =c=B c2  | z2 =c4 _7/8e2 d2 fe d2 c2  | \
w:  sev   |  sev di *  ğim   | 
=B2 =c2 d_7/8e dc c4 z4  | 
w:   | 
e3d d2 e2 d2 =c4 d2  | =c2 =Bc B2 A2 z2 AG F2 G2  | \
w:  naz *  lım_ a man  *  a  |  man   *  *  *  *  Be *  *  li   | 
A2 G2 A2 =c2 =B2 A4 GF  | 
w:  be *  li  *  be *  li   | 
AG FE D4 G3F G2 =B2  | A2 G4 GF F3E G2 FE  | \
w:  mî *  *  *  rim  öm *  rüm_ a  |  man  *  e *  fen *  dim_ a  | 
D2 E6 z4 d3e  | 
w:  man  *  vay   | 
=f3e ed dc d6 z2  | c2 d8 d2 =B2 c2  | \
w:  hey  *  câ *  *  *  nım    |  Ah  *  dâm_ *  ı   | 
d8 z2 f4 g2  | g2 e4 =f2 d2 g2 f2 e2  | 
w:  zül fün  |  *  den   | 
d2 c2 BA G2 z2 dc =B2 cd  | c2 d6 z4 f3g  | \
w:  *  *  *  *  *  den  *  *  gö  |  nül  *  nül   | 
e3=f d3e cd cB BA BA  | 
w:  mür  | 
A8 z2 AG F2 G2  | A6 c2 cB BA B2 d2  | \
w:  *  gin_ *  *  i   |  *  *  zâd   | 
c2 B2 A2 B2 dc BA G4  | 
w:   | 
d4 d2 g2 =f2 e4 d2  | c2 d2 e=f ed d8  | \
w:  ey le *  *  me   |   | 
d6 d2 d2 c4 d2  | c2 B4 A2 z2 AG F2 G2  | 
w:  naz lım_ a man  a  |  man   *  *  Be *  li   | 
A2 G2 A2 =c2 B2 A4 GF  | AG FE D4 G3F G2 =B2  | \
w:  be *  li  *  be *  li   |  mî *  *  *  rim  öm *  rüm_ a  | 
A2 G4 GF F3E G2 FE  | 
w:  man  *  e *  fen *  dim_ a  | 
D2 E6 z4 d3e  | =f3e ed dc d6 z2  | c2 d8 {e}dc =B2 c2  | \
w:  man  *  vay   |  hey  *  câ *  *  *  nım    |  Ah  *  *  gön *  *  lü  | 
d8 z2 f4 g2  | 
w:  mü  vî  | 
g2 e4 =f2 d2 g2 f2 e2  | d2 c2 BA G2 z2 dc B2 cd  | \
w:  *  râ   |  *  *  *  *  *  rân  *  *  e  | 
c2 d6 z4 =f3g  | 
w:  den  *  den   | 
e3=f d3e cd cB BA BA  | A8 z2 AG F2 G2  | \
w:  a  |  *  dâ *  *  yı   | 
A6 c2 cB {c}BA B2 {e}d2  | 
w:  dil *  şâd   | 
c2 B2 A2 B2 dc BA G4  | d4 d2 g2 =f2 e4 d2  | \
w:   |  ey le *  *  me   | 
c2 d2 e=f ed d8  | 
w:   | 
d4 d4 d2 c4 d2  | c2 B4 A2 z2 AG F2 G2  | \
w:  naz lım  a man  a  |  man   *  *  Be *  li   | 
A2 G2 A2 =c2 =B2 A4 GF  | 
w:  be *  *  li  be *  li   | 
AG FE D4 G3F G2 =B2  | A2 G4 {A}GF F3E G2 FE  | \
w:  mî *  *  *  rim  öm *  rüm_ a  |  man  *  *  e *  fen *  dim_ a  | 
D2 E6 |
w:  man   | 


